48x48/categories/applications-profiling.svg

<?xml version="1.0" encoding="UTF-8" standalone="no"?>
<svg
   xmlns:dc="http://purl.org/dc/elements/1.1/"
   xmlns:cc="http://creativecommons.org/ns#"
   xmlns:rdf="http://www.w3.org/1999/02/22-rdf-syntax-ns#"
   xmlns:svg="http://www.w3.org/2000/svg"
   xmlns="http://www.w3.org/2000/svg"
   xmlns:sodipodi="http://sodipodi.sourceforge.net/DTD/sodipodi-0.dtd"
   xmlns:inkscape="http://www.inkscape.org/namespaces/inkscape"
   width="47.5"
   height="47.5"
   viewBox="0 0 38 38"
   id="svg2"
   version="1.1"
   inkscape:version="0.48.4 r9939"
   sodipodi:docname="applications-profiling.svg">
  <metadata
     id="metadata60">
    <rdf:RDF>
      <cc:Work
         rdf:about="">
        <dc:format>image/svg+xml</dc:format>
        <dc:type
           rdf:resource="http://purl.org/dc/dcmitype/StillImage" />
      </cc:Work>
    </rdf:RDF>
  </metadata>
  <defs
     id="defs58" />
  <sodipodi:namedview
     pagecolor="#ffffff"
     bordercolor="#666666"
     borderopacity="1"
     objecttolerance="10"
     gridtolerance="10"
     guidetolerance="10"
     inkscape:pageopacity="0"
     inkscape:pageshadow="2"
     inkscape:window-width="1440"
     inkscape:window-height="848"
     id="namedview56"
     showgrid="false"
     inkscape:zoom="4.9684211"
     inkscape:cx="-31.096398"
     inkscape:cy="22.944916"
     inkscape:window-x="0"
     inkscape:window-y="0"
     inkscape:window-maximized="1"
     inkscape:current-layer="svg2" />
  <g
     style="fill:#ffffff"
     id="g4"
     transform="translate(0.96610057,2.9418288e-5)">
    <path
       d="m 30.90625,21.9375 c 0,6.574219 -5.332031,11.90625 -11.90625,11.90625 -6.574219,0 -11.90625,-5.332031 -11.90625,-11.90625 0,-6.578125 5.332031,-11.90625 11.90625,-11.90625 6.574219,0 11.90625,5.328125 11.90625,11.90625 z"
       id="path6"
       inkscape:connector-curvature="0"
       style="fill:#ffffff" />
    <path
       d="m 18.082031,8.363281 1.835938,0 c 0.25,0 0.449219,0.203125 0.449219,0.449219 l 0,1.449219 c 0,0.25 -0.199219,0.449219 -0.449219,0.449219 l -1.835938,0 c -0.25,0 -0.449219,-0.199219 -0.449219,-0.449219 l 0,-1.449219 c 0,-0.246094 0.199219,-0.449219 0.449219,-0.449219 z"
       id="path8"
       inkscape:connector-curvature="0"
       style="fill:#ffffff" />
    <path
       d="m 18.0625,6.796875 1.875,0 c 0.628906,0 1.136719,0.507813 1.136719,1.136719 0,0.625 -0.507813,1.136718 -1.136719,1.136718 l -1.875,0 c -0.628906,0 -1.136719,-0.511718 -1.136719,-1.136718 0,-0.628906 0.507813,-1.136719 1.136719,-1.136719 z"
       id="path10"
       inkscape:connector-curvature="0"
       style="fill:#ffffff" />
    <path
       style="fill:#ffffff;stroke:#b477d0;stroke-width:6.10699987;stroke-linejoin:round"
       d="m 124.13158,31.052632 8.97368,0 c 8.86842,0 16.05263,4.473684 16.05263,10.026315 l 0,1.052632 c 0,5.526316 -7.18421,10 -16.05263,10 l -8.97368,0 c -8.86842,0 -16.07895,-4.473684 -16.07895,-10 l 0,-1.052632 c 0,-5.552631 7.21053,-10.026315 16.07895,-10.026315 z"
       transform="scale(0.14844,0.14844)"
       id="path12"
       inkscape:connector-curvature="0" />
  </g>
  <path
     sodipodi:type="arc"
     style="fill:#b477d0;fill-opacity:1;stroke:none"
     id="path3037"
     sodipodi:cx="-41.871964"
     sodipodi:cy="16.90678"
     sodipodi:rx="42.661934"
     sodipodi:ry="26.366526"
     d="m 0.7899704,16.90678 a 42.661934,26.366526 0 1 1 -85.3238674,0 42.661934,26.366526 0 1 1 85.3238674,0 z"
     transform="matrix(0.45004992,0,0,0.72819606,37.844474,6.6885492)" />
  <path
     transform="matrix(0.8,0,0,0.8,63.762711,0.80508423)"
     d="m -39.650423,22.743645 a 16.302965,16.302965 0 1 1 -32.60593,0 16.302965,16.302965 0 1 1 32.60593,0 z"
     sodipodi:ry="16.302965"
     sodipodi:rx="16.302965"
     sodipodi:cy="22.743645"
     sodipodi:cx="-55.953388"
     id="path3013"
     style="fill:#ffd5d5;fill-opacity:1;stroke:none"
     sodipodi:type="arc" />
  <rect
     y="11.110169"
     x="17.872883"
     height="8.3728809"
     width="1.4491525"
     id="rect3015"
     style="fill:#ffffff;fill-opacity:1;stroke:none" />
  <rect
     transform="matrix(0.8660254,-0.5,0.5,0.8660254,0,0)"
     style="fill:#ffffff;fill-opacity:1;stroke:none"
     id="rect3017"
     width="1.4491525"
     height="8.3728809"
     x="5.8639569"
     y="25.461214" />
</svg>

<svg width="47.5" xmlns="http://www.w3.org/2000/svg" height="47.5" viewBox="0 0 38 38" xmlns:xlink="http://www.w3.org/1999/xlink">
<g style="fill:#b477d0">
<path d="M 30.90625 21.9375 C 30.90625 28.511719 25.574219 33.84375 19 33.84375 C 12.425781 33.84375 7.09375 28.511719 7.09375 21.9375 C 7.09375 15.359375 12.425781 10.03125 19 10.03125 C 25.574219 10.03125 30.90625 15.359375 30.90625 21.9375 Z "/>
<path d="M 18.082031 8.363281 L 19.917969 8.363281 C 20.167969 8.363281 20.367188 8.566406 20.367188 8.8125 L 20.367188 10.261719 C 20.367188 10.511719 20.167969 10.710938 19.917969 10.710938 L 18.082031 10.710938 C 17.832031 10.710938 17.632812 10.511719 17.632812 10.261719 L 17.632812 8.8125 C 17.632812 8.566406 17.832031 8.363281 18.082031 8.363281 Z "/>
<path d="M 18.0625 6.796875 L 19.9375 6.796875 C 20.566406 6.796875 21.074219 7.304688 21.074219 7.933594 C 21.074219 8.558594 20.566406 9.070312 19.9375 9.070312 L 18.0625 9.070312 C 17.433594 9.070312 16.925781 8.558594 16.925781 7.933594 C 16.925781 7.304688 17.433594 6.796875 18.0625 6.796875 Z "/>
<path style="stroke:#b477d0;stroke-linejoin:round;stroke-width:6.107" d="M 124.131579 31.052632 L 133.105263 31.052632 C 141.973684 31.052632 149.157895 35.526316 149.157895 41.078947 L 149.157895 42.131579 C 149.157895 47.657895 141.973684 52.131579 133.105263 52.131579 L 124.131579 52.131579 C 115.263158 52.131579 108.052632 47.657895 108.052632 42.131579 L 108.052632 41.078947 C 108.052632 35.526316 115.263158 31.052632 124.131579 31.052632 Z " transform="scale(.14844)"/>
</g>
<path style="fill:#fff" d="M 28.929688 21.9375 C 28.929688 27.421875 24.484375 31.867188 19 31.867188 C 13.515625 31.867188 9.070312 27.421875 9.070312 21.9375 C 9.070312 16.453125 13.515625 12.007812 19 12.007812 C 24.484375 12.007812 28.929688 16.453125 28.929688 21.9375 Z "/>
<g style="fill:#b477d0">
<g>
<path d="M 18.863281 12.660156 L 19.136719 12.660156 C 19.382812 12.660156 19.585938 12.859375 19.585938 13.109375 L 19.585938 14.546875 C 19.585938 14.792969 19.382812 14.996094 19.136719 14.996094 L 18.863281 14.996094 C 18.617188 14.996094 18.414062 14.792969 18.414062 14.546875 L 18.414062 13.109375 C 18.414062 12.859375 18.617188 12.660156 18.863281 12.660156 Z "/>
<path d="M 18.863281 28.652344 L 19.136719 28.652344 C 19.382812 28.652344 19.585938 28.855469 19.585938 29.101562 L 19.585938 30.542969 C 19.585938 30.789062 19.382812 30.992188 19.136719 30.992188 L 18.863281 30.992188 C 18.617188 30.992188 18.414062 30.789062 18.414062 30.542969 L 18.414062 29.101562 C 18.414062 28.855469 18.617188 28.652344 18.863281 28.652344 Z "/>
<path d="M 9.742188 22.070312 L 9.742188 21.800781 C 9.742188 21.554688 9.945312 21.351562 10.195312 21.351562 L 11.632812 21.351562 C 11.878906 21.351562 12.082031 21.554688 12.082031 21.800781 L 12.082031 22.070312 C 12.082031 22.320312 11.878906 22.519531 11.632812 22.519531 L 10.195312 22.519531 C 9.945312 22.519531 9.742188 22.320312 9.742188 22.070312 Z "/>
<path d="M 25.46875 22.070312 L 25.46875 21.800781 C 25.46875 21.554688 25.671875 21.351562 25.917969 21.351562 L 27.355469 21.351562 C 27.605469 21.351562 27.804688 21.554688 27.804688 21.800781 L 27.804688 22.070312 C 27.804688 22.320312 27.605469 22.519531 27.355469 22.519531 L 25.917969 22.519531 C 25.671875 22.519531 25.46875 22.320312 25.46875 22.070312 Z "/>
<path d="M 23.074219 6.40625 L 23.132812 6.4375 C 23.1875 6.46875 23.191406 6.558594 23.144531 6.640625 L 22.878906 7.105469 C 22.832031 7.183594 22.75 7.226562 22.695312 7.195312 L 22.636719 7.160156 C 22.585938 7.128906 22.578125 7.039062 22.625 6.957031 L 22.894531 6.492188 C 22.9375 6.414062 23.019531 6.375 23.074219 6.40625 Z "/>
<path d="M 30.152344 10.546875 L 30.1875 10.605469 C 30.21875 10.660156 30.179688 10.742188 30.097656 10.789062 L 29.632812 11.058594 C 29.554688 11.101562 29.464844 11.097656 29.433594 11.042969 L 29.398438 10.984375 C 29.367188 10.929688 29.40625 10.847656 29.488281 10.804688 L 29.953125 10.535156 C 30.03125 10.488281 30.121094 10.496094 30.152344 10.546875 Z "/>
<path d="M 23.074219 37.238281 L 23.132812 37.203125 C 23.1875 37.171875 23.191406 37.082031 23.144531 37.003906 L 22.878906 36.539062 C 22.832031 36.457031 22.75 36.417969 22.695312 36.449219 L 22.636719 36.484375 C 22.585938 36.515625 22.578125 36.605469 22.625 36.683594 L 22.894531 37.148438 C 22.9375 37.230469 23.019531 37.269531 23.074219 37.238281 Z "/>
<path d="M 30.152344 33.09375 L 30.1875 33.035156 C 30.21875 32.980469 30.179688 32.902344 30.097656 32.855469 L 29.632812 32.585938 C 29.554688 32.539062 29.464844 32.546875 29.433594 32.601562 L 29.398438 32.660156 C 29.367188 32.710938 29.40625 32.792969 29.488281 32.839844 L 29.953125 33.109375 C 30.03125 33.15625 30.121094 33.148438 30.152344 33.09375 Z "/>
<path d="M 14.933594 37.238281 L 14.875 37.203125 C 14.824219 37.171875 14.816406 37.082031 14.863281 37.003906 L 15.128906 36.539062 C 15.175781 36.457031 15.257812 36.417969 15.3125 36.449219 L 15.371094 36.484375 C 15.425781 36.515625 15.429688 36.605469 15.382812 36.683594 L 15.117188 37.148438 C 15.070312 37.230469 14.988281 37.269531 14.933594 37.238281 Z "/>
<path d="M 7.855469 33.09375 L 7.824219 33.035156 C 7.792969 32.980469 7.832031 32.902344 7.910156 32.855469 L 8.375 32.585938 C 8.457031 32.539062 8.546875 32.546875 8.578125 32.601562 L 8.609375 32.660156 C 8.640625 32.710938 8.601562 32.792969 8.523438 32.839844 L 8.058594 33.109375 C 7.976562 33.15625 7.886719 33.148438 7.855469 33.09375 Z "/>
<path d="M 14.933594 6.460938 L 14.875 6.496094 C 14.824219 6.527344 14.816406 6.617188 14.863281 6.695312 L 15.128906 7.160156 C 15.175781 7.242188 15.257812 7.28125 15.3125 7.25 L 15.371094 7.214844 C 15.425781 7.183594 15.429688 7.09375 15.382812 7.015625 L 15.117188 6.550781 C 15.070312 6.46875 14.988281 6.429688 14.933594 6.460938 Z "/>
<path d="M 7.855469 10.605469 L 7.824219 10.664062 C 7.792969 10.714844 7.832031 10.796875 7.910156 10.84375 L 8.375 11.113281 C 8.457031 11.160156 8.546875 11.152344 8.578125 11.097656 L 8.609375 11.039062 C 8.640625 10.984375 8.601562 10.90625 8.523438 10.859375 L 8.058594 10.589844 C 7.976562 10.542969 7.886719 10.550781 7.855469 10.605469 Z "/>
<path d="M 19.035156 15.292969 C 18.789062 15.292969 18.539062 15.304688 18.289062 15.332031 C 18.210938 15.335938 18.140625 15.382812 18.109375 15.453125 C 18.074219 15.523438 18.082031 15.605469 18.128906 15.667969 C 18.179688 15.726562 18.257812 15.757812 18.332031 15.746094 C 20.234375 15.539062 21.925781 16.113281 23.308594 17.4375 C 23.359375 17.5 23.441406 17.523438 23.515625 17.503906 C 23.59375 17.484375 23.652344 17.421875 23.667969 17.34375 C 23.683594 17.269531 23.65625 17.1875 23.59375 17.140625 C 22.3125 15.914062 20.753906 15.285156 19.035156 15.292969 Z "/>
<path d="M 19.640625 16.515625 C 19.535156 16.53125 19.460938 16.617188 19.460938 16.722656 C 19.464844 16.828125 19.542969 16.914062 19.648438 16.925781 C 20.707031 17.0625 21.554688 17.449219 22.351562 18.160156 C 22.4375 18.234375 22.570312 18.226562 22.644531 18.140625 C 22.722656 18.054688 22.714844 17.921875 22.628906 17.847656 C 21.773438 17.089844 20.832031 16.660156 19.703125 16.515625 C 19.679688 16.511719 19.660156 16.511719 19.640625 16.515625 Z "/>
<path d="M 18.867188 14.167969 C 18.179688 14.1875 17.480469 14.300781 16.78125 14.507812 C 16.707031 14.523438 16.648438 14.582031 16.628906 14.65625 C 16.609375 14.734375 16.636719 14.8125 16.691406 14.863281 C 16.75 14.914062 16.832031 14.929688 16.902344 14.902344 C 19.554688 14.113281 22.195312 14.773438 24.160156 16.71875 C 24.242188 16.800781 24.375 16.800781 24.457031 16.71875 C 24.539062 16.636719 24.535156 16.503906 24.457031 16.425781 C 22.90625 14.890625 20.933594 14.109375 18.867188 14.167969 Z "/>
</g>
<g style="fill-rule:evenodd">
<path d="M 25.964844 11.125 L 25.558594 12.726562 L 27.132812 13.9375 L 28.648438 13.050781 C 28.648438 12.265625 26.636719 10.898438 25.964844 11.125 Z "/>
<path d="M 25.949219 16.261719 C 25.808594 16.101562 17.332031 22.980469 17.332031 22.980469 L 17.652344 23.386719 C 17.652344 23.386719 26.085938 16.421875 25.949219 16.261719 Z "/>
</g>
</g>
</svg>
